X:0796
T:Jack's Gratitude.
C:By Dibdin.
M:C
L:1/8
Q:1/2=80
I: ||
N:bar 4 is printed |a2 g/f/ g2 f3g|
Z:Jack Campin * www.campin.me.uk * 2009
K:D
A|d2 f>d a2 a>g|f2 d>f  e3  f|ga/b/ ag fad'f|a2 g/f/g f3g|
  a2 ad' b2 g>f|e2 e>e Hb2 ed|dcBA     a2fd |fedc     d2|]

